X:1
T:Vals från Alvik
R:Vals
O:Alvik, Norrbotten
Z: Johan Dahlberg
M:3/4
L:1/8
K:G
d2 ^cd ef|gd BG Bd|d=c AF Ac|ed BG Bd|
d2 ^cd ef|gd BG Bd|d=c AF AB |1 G4d2:|2 G4G2|
|:FA AD FA|AB BD GB|BA AD FA|AB BD GB|Bc cE Gc|
cB BD GB|BA AD FA|1 G4G2:|2 G6|]

